icon/pk/file-zip.svg

<svg width="48" height="48" fill="none" xmlns="http://www.w3.org/2000/svg"><path d="M10 38v6h28v-6M38 20v-6L30 4H10v16" stroke="#000" stroke-width="4" stroke-linecap="round" stroke-linejoin="round"/><path d="M28 4v10h10" stroke="#000" stroke-width="4" stroke-linecap="round" stroke-linejoin="round"/><path d="M16 12h4" stroke="#000" stroke-width="4" stroke-linecap="round"/><rect x="4" y="20" width="40" height="18" rx="2" stroke="#000" stroke-width="4" stroke-linejoin="round"/><path d="M11 25h6l-6 8h6" stroke="#000" stroke-width="4" stroke-linecap="round" stroke-linejoin="round"/><path d="M24 25v8M31 25v8" stroke="#000" stroke-width="4" stroke-linecap="round"/><path d="M31 25h3.5a2.5 2.5 0 0 1 2.5 2.5v0a2.5 2.5 0 0 1-2.5 2.5H31" stroke="#000" stroke-width="4" stroke-linecap="round" stroke-linejoin="round"/></svg>

<svg viewBox="0 0 48 48" fill="none" xmlns="http://www.w3.org/2000/svg" height="1em" width="1em">
  <path d="M10 38V44H38V38" stroke="black" stroke-width="4" stroke-linecap="round" stroke-linejoin="round"/>
  <path d="M38 20V14L30 4H10V20" stroke="black" stroke-width="4" stroke-linecap="round" stroke-linejoin="round"/>
  <path d="M28 4V14H38" stroke="black" stroke-width="4" stroke-linecap="round" stroke-linejoin="round"/>
  <path d="M16 12H20" stroke="black" stroke-width="4" stroke-linecap="round"/>
  <rect x="4" y="20" width="40" height="18" rx="2" stroke="black" stroke-width="4" stroke-linejoin="round"/>
  <path d="M11 25H17L11 33H17" stroke="black" stroke-width="4" stroke-linecap="round" stroke-linejoin="round"/>
  <path d="M24 25V33" stroke="black" stroke-width="4" stroke-linecap="round"/>
  <path d="M31 25V33" stroke="black" stroke-width="4" stroke-linecap="round"/>
  <path d="M31 25H34.5C35.8807 25 37 26.1193 37 27.5V27.5C37 28.8807 35.8807 30 34.5 30H31" stroke="black" stroke-width="4" stroke-linecap="round" stroke-linejoin="round"/>
</svg>
